assets/images/page/about/icons/kset.svg

<svg width="146" height="143" viewBox="0 0 146 143" fill="none" xmlns="http://www.w3.org/2000/svg">
<g opacity="0.7">
<path d="M12.3467 3.21365L26.8947 3.13672" stroke="#00003F" stroke-width="3.4" stroke-linecap="round" stroke-linejoin="round"/>
<path d="M38.9678 3.07334L46.5114 3.0332" stroke="#00003F" stroke-width="3.4" stroke-linecap="round" stroke-linejoin="round"/>
<path d="M56.5713 2.9798L134.038 2.56836" stroke="#00003F" stroke-width="3.4" stroke-linecap="round" stroke-linejoin="round"/>
<path d="M134.296 69.1947V3.1167" stroke="#00003F" stroke-width="3.4" stroke-linecap="round" stroke-linejoin="round"/>
<path d="M13.0869 69.6265H134.104" stroke="#00003F" stroke-width="3.4" stroke-linecap="round" stroke-linejoin="round"/>
<path d="M12.3467 3.21387L12.6984 69.5193" stroke="#00003F" stroke-width="3.4" stroke-linecap="round" stroke-linejoin="round"/>
<path d="M12.1865 79.7183H100.182" stroke="#00003F" stroke-width="3.4" stroke-linecap="round" stroke-linejoin="round"/>
<path d="M106.992 79.8286H115.48" stroke="#00003F" stroke-width="3.4" stroke-linecap="round" stroke-linejoin="round"/>
<path d="M121.844 80.0527H134.459" stroke="#00003F" stroke-width="3.4" stroke-linecap="round" stroke-linejoin="round"/>
<path d="M39.3764 111.777C43.3651 111.777 46.5985 108.548 46.5985 104.565C46.5985 100.582 43.3651 97.353 39.3764 97.353C35.3877 97.353 32.1543 100.582 32.1543 104.565C32.1543 108.548 35.3877 111.777 39.3764 111.777Z" stroke="#00003F" stroke-width="3.4" stroke-linecap="round" stroke-linejoin="round"/>
<path d="M14.6284 112.389C18.617 112.389 21.8504 109.16 21.8504 105.177C21.8504 101.194 18.617 97.9653 14.6284 97.9653C10.6397 97.9653 7.40625 101.194 7.40625 105.177C7.40625 109.16 10.6397 112.389 14.6284 112.389Z" stroke="#00003F" stroke-width="3.4" stroke-linecap="round" stroke-linejoin="round"/>
<path d="M64.6635 112.389C68.6522 112.389 71.8856 109.16 71.8856 105.177C71.8856 101.194 68.6522 97.9653 64.6635 97.9653C60.6749 97.9653 57.4414 101.194 57.4414 105.177C57.4414 109.16 60.6749 112.389 64.6635 112.389Z" stroke="#00003F" stroke-width="3.4" stroke-linecap="round" stroke-linejoin="round"/>
<path d="M114.213 112.389C118.202 112.389 121.435 109.16 121.435 105.177C121.435 101.194 118.202 97.9653 114.213 97.9653C110.225 97.9653 106.991 101.194 106.991 105.177C106.991 109.16 110.225 112.389 114.213 112.389Z" stroke="#00003F" stroke-width="3.4" stroke-linecap="round" stroke-linejoin="round"/>
<path d="M90.5942 113.192C94.5828 113.192 97.8163 109.963 97.8163 105.98C97.8163 101.997 94.5828 98.7681 90.5942 98.7681C86.6055 98.7681 83.3721 101.997 83.3721 105.98C83.3721 109.963 86.6055 113.192 90.5942 113.192Z" stroke="#00003F" stroke-width="3.4" stroke-linecap="round" stroke-linejoin="round"/>
<path d="M67.1526 140.263H38.2676V135.955C38.2692 134.096 39.0088 132.313 40.3243 130.997L44.0091 127.318C44.9491 126.376 46.225 125.846 47.5565 125.843H57.8436C59.1725 125.844 60.4468 126.371 61.3877 127.308L65.0724 130.987C66.3879 132.303 67.1275 134.086 67.1292 135.945L67.1526 140.263Z" stroke="#00003F" stroke-width="3.4" stroke-linecap="round" stroke-linejoin="round"/>
<path d="M52.7114 122.237C56.7 122.237 59.9334 119.008 59.9334 115.025C59.9334 111.042 56.7 107.813 52.7114 107.813C48.7227 107.813 45.4893 111.042 45.4893 115.025C45.4893 119.008 48.7227 122.237 52.7114 122.237Z" stroke="#00003F" stroke-width="3.4" stroke-linecap="round" stroke-linejoin="round"/>
<path d="M33.9901 140.263H12.3271V135.955C12.3315 134.094 13.0748 132.312 14.394 130.998L18.0787 127.318C19.0196 126.381 20.2939 125.854 21.6228 125.853H31.9132C33.2421 125.854 34.5164 126.381 35.4573 127.318L35.7923 127.653L36.7972 128.656" stroke="#00003F" stroke-width="3.4" stroke-linecap="round" stroke-linejoin="round"/>
<path d="M26.768 122.237C30.7567 122.237 33.9901 119.008 33.9901 115.025C33.9901 111.042 30.7567 107.813 26.768 107.813C22.7793 107.813 19.5459 111.042 19.5459 115.025C19.5459 119.008 22.7793 122.237 26.768 122.237Z" stroke="#00003F" stroke-width="3.4" stroke-linecap="round" stroke-linejoin="round"/>
<path d="M121.768 140.227H143.431V135.918C143.429 134.059 142.689 132.277 141.374 130.961L137.689 127.282C136.748 126.344 135.474 125.818 134.145 125.816H123.848C122.519 125.818 121.245 126.344 120.304 127.282L119.969 127.616L118.964 128.62" stroke="#00003F" stroke-width="3.4" stroke-linecap="round" stroke-linejoin="round"/>
<path d="M128.99 122.2C132.978 122.2 136.212 118.971 136.212 114.988C136.212 111.005 132.978 107.776 128.99 107.776C125.001 107.776 121.768 111.005 121.768 114.988C121.768 118.971 125.001 122.2 128.99 122.2Z" stroke="#00003F" stroke-width="3.4" stroke-linecap="round" stroke-linejoin="round"/>
<path d="M117.735 140.431H88.8496V136.136C88.8512 134.277 89.5909 132.494 90.9064 131.178L94.5911 127.499C95.0555 127.03 95.6078 126.657 96.2165 126.402C96.8252 126.147 97.4783 126.013 98.1385 126.01H108.426C109.755 126.011 111.029 126.538 111.97 127.475L115.654 131.155C116.313 131.807 116.836 132.583 117.193 133.438C117.55 134.293 117.734 135.21 117.735 136.136V140.431Z" stroke="#00003F" stroke-width="3.4" stroke-linecap="round" stroke-linejoin="round"/>
<path d="M103.293 122.404C107.282 122.404 110.515 119.175 110.515 115.192C110.515 111.209 107.282 107.98 103.293 107.98C99.3047 107.98 96.0713 111.209 96.0713 115.192C96.0713 119.175 99.3047 122.404 103.293 122.404Z" stroke="#00003F" stroke-width="3.4" stroke-linecap="round" stroke-linejoin="round"/>
<path d="M71.2061 140.143H84.9602" stroke="#00003F" stroke-width="3.4" stroke-miterlimit="10" stroke-linecap="round"/>
<path d="M78.0727 122.368C82.0613 122.368 85.2948 119.139 85.2948 115.156C85.2948 111.173 82.0613 107.944 78.0727 107.944C74.084 107.944 70.8506 111.173 70.8506 115.156C70.8506 119.139 74.084 122.368 78.0727 122.368Z" stroke="#00003F" stroke-width="3.4" stroke-linecap="round" stroke-linejoin="round"/>
<path d="M51.476 102.284C55.4647 102.284 58.6981 99.0553 58.6981 95.0723C58.6981 91.0892 55.4647 87.8604 51.476 87.8604C47.4873 87.8604 44.2539 91.0892 44.2539 95.0723C44.2539 99.0553 47.4873 102.284 51.476 102.284Z" stroke="#00003F" stroke-width="3.4" stroke-linecap="round" stroke-linejoin="round"/>
<path d="M26.4565 100.407C30.4451 100.407 33.6786 97.1784 33.6786 93.1953C33.6786 89.2123 30.4451 85.9834 26.4565 85.9834C22.4678 85.9834 19.2344 89.2123 19.2344 93.1953C19.2344 97.1784 22.4678 100.407 26.4565 100.407Z" stroke="#00003F" stroke-width="3.4" stroke-linecap="round" stroke-linejoin="round"/>
<path d="M76.4916 102.284C80.4803 102.284 83.7137 99.0553 83.7137 95.0723C83.7137 91.0892 80.4803 87.8604 76.4916 87.8604C72.503 87.8604 69.2695 91.0892 69.2695 95.0723C69.2695 99.0553 72.503 102.284 76.4916 102.284Z" stroke="#00003F" stroke-width="3.4" stroke-linecap="round" stroke-linejoin="round"/>
<path d="M127.242 104.569C131.23 104.569 134.464 101.34 134.464 97.3569C134.464 93.3739 131.23 90.145 127.242 90.145C123.253 90.145 120.02 93.3739 120.02 97.3569C120.02 101.34 123.253 104.569 127.242 104.569Z" stroke="#00003F" stroke-width="3.4" stroke-linecap="round" stroke-linejoin="round"/>
<path d="M102.422 99.6045C106.411 99.6045 109.644 96.3756 109.644 92.3926C109.644 88.4096 106.411 85.1807 102.422 85.1807C98.4336 85.1807 95.2002 88.4096 95.2002 92.3926C95.2002 96.3756 98.4336 99.6045 102.422 99.6045Z" stroke="#00003F" stroke-width="3.4" stroke-linecap="round" stroke-linejoin="round"/>
<path d="M68.8916 129.238L70.9015 127.231C71.2851 126.848 71.7405 126.544 72.2417 126.337C72.7429 126.13 73.28 126.023 73.8225 126.023H82.2974C82.8398 126.023 83.377 126.13 83.8782 126.337C84.3793 126.544 84.8347 126.848 85.2184 127.231L87.2282 129.238" stroke="#00003F" stroke-width="3.4" stroke-linecap="round" stroke-linejoin="round"/>
<path d="M10.9034 130.242H2.56919V125.934C2.54366 124.15 3.10632 122.408 4.17038 120.976L7.05118 117.297C7.36809 116.857 7.78227 116.496 8.26156 116.242C8.74084 115.988 9.27233 115.847 9.81474 115.832H17.8274C18.3171 115.832 18.7999 115.947 19.2376 116.166" stroke="#00003F" stroke-width="3.4" stroke-linecap="round" stroke-linejoin="round"/>
<path d="M34.3281 115.397C34.595 115.343 34.8666 115.316 35.1388 115.316H43.6137C44.1187 115.317 44.6194 115.41 45.0909 115.591" stroke="#00003F" stroke-width="3.4" stroke-linecap="round" stroke-linejoin="round"/>
<path d="M60.4268 115.992H68.9017C69.273 115.993 69.6426 116.043 70.0004 116.143" stroke="#00003F" stroke-width="3.4" stroke-linecap="round" stroke-linejoin="round"/>
<path d="M85.5527 116.902C85.8165 116.85 86.0846 116.824 86.3533 116.825H94.8282C95.1004 116.825 95.372 116.852 95.6389 116.905" stroke="#00003F" stroke-width="3.4" stroke-linecap="round" stroke-linejoin="round"/>
<path d="M110.934 115.657H118.45C118.993 115.657 119.53 115.764 120.031 115.971C120.532 116.178 120.988 116.482 121.371 116.865" stroke="#00003F" stroke-width="3.4" stroke-linecap="round" stroke-linejoin="round"/>
<path d="M98.1846 103.184H106.659C106.773 103.184 106.885 103.184 106.994 103.184" stroke="#00003F" stroke-width="3.4" stroke-linecap="round" stroke-linejoin="round"/>
<path d="M72.2549 105.663H80.7197C81.2623 105.663 81.7996 105.77 82.3008 105.977" stroke="#00003F" stroke-width="3.4" stroke-linecap="round" stroke-linejoin="round"/>
<path d="M46.6055 105.696C46.8149 105.663 47.0266 105.646 47.2386 105.646H55.7135C56.0917 105.645 56.4682 105.697 56.8323 105.799" stroke="#00003F" stroke-width="3.4" stroke-linecap="round" stroke-linejoin="round"/>
<path d="M22.2188 103.899H30.6937C31.0708 103.9 31.4461 103.951 31.8091 104.053" stroke="#00003F" stroke-width="3.4" stroke-linecap="round" stroke-linejoin="round"/>
<path d="M137.33 122.087H141.883V117.768C141.898 115.949 141.249 114.186 140.057 112.811L136.774 109.131C136.384 108.678 135.901 108.312 135.358 108.06C134.815 107.807 134.224 107.673 133.626 107.666H124.467C123.914 107.666 123.367 107.78 122.859 108.001" stroke="#00003F" stroke-width="3.4" stroke-linecap="round" stroke-linejoin="round"/>
</g>
</svg>

<svg width="146" height="143" fill="none" xmlns="http://www.w3.org/2000/svg"><g opacity=".7" stroke="#00003F" stroke-width="3.4" stroke-linecap="round"><path d="m12.347 3.214 14.548-.077m12.073-.064 7.543-.04m10.06-.053 77.467-.412m.258 66.627V3.117M13.087 69.626h121.017M12.347 3.214l.351 66.305m-.511 10.199h87.995m6.81.111h8.488m6.364.224h12.615m-95.083 31.724c3.99 0 7.223-3.229 7.223-7.212 0-3.983-3.234-7.212-7.223-7.212-3.988 0-7.222 3.229-7.222 7.212 0 3.983 3.234 7.212 7.222 7.212Zm-24.748.612c3.989 0 7.222-3.229 7.222-7.212 0-3.983-3.233-7.212-7.222-7.212-3.988 0-7.222 3.229-7.222 7.212 0 3.983 3.234 7.212 7.222 7.212Zm50.035 0c3.99 0 7.223-3.229 7.223-7.212 0-3.983-3.234-7.212-7.222-7.212-3.99 0-7.223 3.229-7.223 7.212 0 3.983 3.234 7.212 7.222 7.212Zm49.55 0c3.989 0 7.222-3.229 7.222-7.212 0-3.983-3.233-7.212-7.222-7.212-3.988 0-7.222 3.229-7.222 7.212 0 3.983 3.234 7.212 7.222 7.212Zm-23.619.803c3.989 0 7.222-3.229 7.222-7.212 0-3.983-3.233-7.212-7.222-7.212-3.988 0-7.222 3.229-7.222 7.212 0 3.983 3.234 7.212 7.222 7.212Zm-23.441 27.071H38.268v-4.308a7.022 7.022 0 0 1 2.056-4.958l3.685-3.679a5.027 5.027 0 0 1 3.547-1.475h10.288a5.028 5.028 0 0 1 3.544 1.465l3.684 3.679a7.022 7.022 0 0 1 2.057 4.958l.024 4.318Zm-14.442-18.026c3.989 0 7.222-3.229 7.222-7.212 0-3.983-3.233-7.212-7.222-7.212-3.988 0-7.222 3.229-7.222 7.212 0 3.983 3.234 7.212 7.222 7.212ZM33.99 140.263H12.327v-4.308a7.019 7.019 0 0 1 2.067-4.957l3.685-3.68a5.028 5.028 0 0 1 3.544-1.465h10.29a5.028 5.028 0 0 1 3.544 1.465l.335.335 1.005 1.003m-10.029-6.419c3.989 0 7.222-3.229 7.222-7.212 0-3.983-3.233-7.212-7.222-7.212-3.989 0-7.222 3.229-7.222 7.212 0 3.983 3.233 7.212 7.222 7.212Zm95 17.99h21.663v-4.309a7.024 7.024 0 0 0-2.057-4.957l-3.685-3.679a5.029 5.029 0 0 0-3.544-1.466h-10.297a5.029 5.029 0 0 0-3.544 1.466l-.335.334-1.005 1.004m10.026-6.42c3.988 0 7.222-3.229 7.222-7.212 0-3.983-3.234-7.212-7.222-7.212-3.989 0-7.222 3.229-7.222 7.212 0 3.983 3.233 7.212 7.222 7.212Zm-11.255 18.231H88.85v-4.295a7.022 7.022 0 0 1 2.056-4.958l3.685-3.679a5.014 5.014 0 0 1 3.547-1.489h10.288a5.028 5.028 0 0 1 3.544 1.465l3.684 3.68a7.012 7.012 0 0 1 2.081 4.981v4.295Z" stroke-linejoin="round"/><path d="M103.293 122.404c3.989 0 7.222-3.229 7.222-7.212 0-3.983-3.233-7.212-7.222-7.212-3.988 0-7.222 3.229-7.222 7.212 0 3.983 3.234 7.212 7.222 7.212Z" stroke-linejoin="round"/><path d="M71.206 140.143H84.96" stroke-miterlimit="10"/><path d="M78.073 122.368c3.988 0 7.222-3.229 7.222-7.212 0-3.983-3.234-7.212-7.222-7.212-3.989 0-7.222 3.229-7.222 7.212 0 3.983 3.233 7.212 7.222 7.212Zm-26.597-20.084c3.989 0 7.222-3.229 7.222-7.212 0-3.983-3.233-7.212-7.222-7.212-3.989 0-7.222 3.23-7.222 7.212 0 3.983 3.233 7.212 7.222 7.212Zm-25.02-1.877c3.99 0 7.223-3.229 7.223-7.212 0-3.983-3.234-7.212-7.223-7.212-3.988 0-7.222 3.23-7.222 7.212 0 3.983 3.234 7.212 7.222 7.212Zm50.036 1.877c3.988 0 7.222-3.229 7.222-7.212 0-3.983-3.234-7.212-7.222-7.212-3.989 0-7.223 3.23-7.223 7.212 0 3.983 3.234 7.212 7.223 7.212Zm50.75 2.285c3.988 0 7.222-3.229 7.222-7.212 0-3.983-3.234-7.212-7.222-7.212-3.989 0-7.222 3.229-7.222 7.212 0 3.983 3.233 7.212 7.222 7.212Zm-24.82-4.964c3.989 0 7.222-3.23 7.222-7.212 0-3.983-3.233-7.212-7.222-7.212-3.988 0-7.222 3.229-7.222 7.212 0 3.983 3.234 7.212 7.222 7.212Zm-33.53 29.633 2.01-2.007a4.127 4.127 0 0 1 2.92-1.208h8.475a4.142 4.142 0 0 1 2.921 1.208l2.01 2.007m-76.325 1.004H2.57v-4.308a8.117 8.117 0 0 1 1.601-4.958l2.881-3.679a3.527 3.527 0 0 1 2.764-1.465h8.012c.49 0 .973.115 1.41.334m15.09-.769a4.09 4.09 0 0 1 .81-.081h8.476a4.145 4.145 0 0 1 1.477.275m15.336.401h8.475c.371.001.74.051 1.098.151m15.553.759c.264-.052.532-.078.8-.077h8.475c.272 0 .544.027.81.08m15.296-1.248h7.516a4.14 4.14 0 0 1 2.921 1.208m-23.186-13.681h8.809m-34.739 2.479h8.465c.542 0 1.08.107 1.58.314m-35.695-.281c.21-.033.422-.05.634-.05h8.475c.378-.001.754.051 1.118.153m-34.613-1.9h8.475a4.16 4.16 0 0 1 1.115.154m105.521 18.034h4.553v-4.319a7.474 7.474 0 0 0-1.826-4.957l-3.283-3.68a4.22 4.22 0 0 0-3.148-1.465h-9.159c-.553 0-1.1.114-1.608.335" stroke-linejoin="round"/></g></svg>
